X: 124
T: No_50_Song_of_the_Captive_Sioux_Woman.krn
%%abc-version 2.0
%%abcx-abcm2ps-target-version 5.9.1 (29 Sep 2008)
%%abc-creator hum2abc beta
%%abcx-conversion-date 2020/08/10 18:54:57
%%gracespace 0 6 6
%%humdrum-veritas 3844155981
%%humdrum-veritas-data 3443484105
%%linebreak <none>
%%barnumbers 0
L: 1/8
M: 3/4
%%staves {1 2}
V: 1 clef=bass
V: 2 clef=bass
K: A
[V:1] F,C/>C/C [I:setbarnb 1]| 
[V:2] z3 | 
[V:1] A,2A,3C ||  
[V:2] !accent!G,,G,, !accent!G,,G,, !accent!G,,G,, ||  
[V:1] [M:2/4]!fermata!C/>D/C//>B,//B,/ B,/>C/B, ||  
[V:2] [M:2/4]z4 ||  
[V:1] [M:3/4]F,2F,3A, ||  
[V:2] [M:3/4]z6 ||  
[V:1] [M:2/4]A,/>A,/A, A,/(3F,//F,F, | 
[V:2] [M:2/4]z4 | 
[V:1] F,4 ||  
[V:2] z4 ||  
[V:1] [M:3/4]A,A,F,2E,2 | 
[V:2] [M:3/4]z6 | 
[V:1] F,2F,4 |]  
[V:2] z6 |]  


